X:1
T:Um fado para guitarra (1897)
T:Um fado
T:para guitarra
T:António Augusto Correia de Aguiar
T:Galáxia Sonora Coimbrã 2020 (A. Caetano)
T:Galáxia Sonora Coimbrã 2020 (A. Caetano)
C:António Augusto Correia de Aguiar
Z:Galáxia Sonora Coimbrã 2020 (A. Caetano)
%%score 1 { 2 | 3 }
L:1/8
M:2/4
K:C
V:1 treble-8 nm="Voz"
V:2 treble nm="Piano"
V:3 bass 
V:1
 z2[Q:1/4=60] | z4 | z4 | z4 | z4 | z2 z3/2 e/ |: e>c c/BA/ | d>B ^G>E | d>B B/^GE/ | e2 e3/2 e/ | %10
w: |||||Quan-|do a nou- te ra- la as|tran- an- ças Por|so- bre o mun- do dor-|men- te, Quan-|
 e>c c/BA/ | d>B ^G>E | d>B B/^GE/ | e2 e3/2 e/ | d>e f/dB/ | c/4d/4e/-e z c | B>c d/B^G/ | %17
w: do a nou- te ra- la as|tran- an- ças Por|so- bre o mun- do dor-|men- te, Sus-|pi- ram as se- re-|na- a- tas _ Ou-|ve \- se um can- to do-|
 AA z3/2 e/ | d>e f/df/ | ee z c | B>c d/fe/ |1 AA z2 | z2 z3/2 e/ :|2 AA z2 | z2 z2 | z2 z2 |] %26
w: len- te, Sus-|pi- ram as se- re-|na- tas Ou-|ve\-se um can- to do-|len- te.|Quan-||||
V:2
 z3/2 [ee']/ | [ee']>[cc'] [cc']/[Bb][Aa]/ | [^GBd]2- [GBd]>[dd'] | [ee']>[Bb] [dd']/[Bb][cc']/ | %4
 [Aa]2 z2 | z2 z2 |: z2 z2 | z2 z2 | z2 z2 | z2 z2 | z2 z2 | z2 z2 | z2 z2 | z2 z2 | z2 z2 | %15
 z2 z2 | z2 z2 | z2 z2 | z2 z2 | z2 z2 | z2 z2 |1 [EA]2 z2 | z2 z3/2 e/ :|2 [EA]2 [Ace]2 | %24
 z2 [^GBd][EG] | [CEA]2 z2 |] %26
V:3
 z2 | [E,A,C]4 | [E,^G,D]4 | [E,^G,D]4 | [A,,A,]/A,/C/A,/ [CE]/!fermata!F/E/C/ | %5
 [A,,A,]/A,/C/A,/ [CE]A, |: [A,,A,]/A,/C/A,/ [CE]A, | [B,,B,]/^G,/B,/G,/ [B,D]G, | %8
 [E,,B,]/^G,/B,/G,/ [B,D]G, | [A,,A,]/A,/C/A,/ [CE]A, | [A,,A,]/A,/C/A,/ [CE]A, | %11
 [B,,B,]/^G,/B,/G,/ [B,D]G, | [E,,B,]/^G,/B,/G,/ [B,D]G, | [A,,A,]/A,/C/A,/ [CE]A, | %14
 [B,,B,]/B,/D/B,/ [DF]B, | [A,,A,]/A,/C/A,/ [CE]A, | [E,,B,]/^G,/B,/G,/ [B,D]G, | %17
 [A,,A,]/A,/C/A,/ [CE]A, | [B,,B,]/B,/D/B,/ [DF]B, | [A,,A,]/A,/C/A,/ [CE]A, | %20
 [E,,B,]/^G,/B,/G,/ [B,D]G, |1 [A,,A,]/A,/C/A,/ [CE]/F/E/C/ | [A,,A,]/A,/C/A,/ [CE]A, :|2 %23
 [A,,A,]/A,/C/A,/ [CE]A, | [E,,E,]/^G,/B,/G,/ [B,D]G, | [A,,E,A,]2 [A,,,A,,]2 |] %26

